!!!OTL: Changgong hen
!!!ARE: Asia, China,ÿLiaoning, Gaixian
!! III, 255
!!!SCT: C1555
!!!YEM: Copyright 1995, estate of Helmut Schaffrath.
**kern
*ICvox
*Ivox
*M2/4
*k[f#]
*G:
{8dd
8b
4ee
=1
8dd
8b
4a
=2
8dd
8b
8a
8b
=3
8a
8e
4g}
=4
{8e
8b
8e
8b
=5
8a
8a
16g
16f#
8e
=6
8e
8e
4d}
=7
{8e
8e
16a
16a
8a
=8
16e
16e
8f#
4e
=9
8g
8e
[4d
=10
4d]
4r}
==
!!!AGN: Xiaodiao, Chunge shanggong diao
!!!AMT: simple duple
!!!AIN: vox
!!!EED: Helmut Schaffrath
!!!EEV: 1.0
*-
!!!ONB: Tied note syntax fixed by Craig Sapp, 2004/05/03/
